X: 4
T: The Blarney Pilgrim
R: jig
M: 6/8
L: 1/8
K: Dmix
|:DED DEG| A2A ABc| BAG AGE| GEA GED|
DED DEG|A2A ABc|BAG AGE| GED D3:|
ded dBG|AGA BGE| ded dBG|AGA B3|
g2e dBG|AGA B2d|dcB AGE| GED D3:|
A2D B2D| A2D ABc|BAG AGE|GEA GED|
ADD BDD|ADD ABc|BAG AGE|GED D3:|


Tune 5	Setting 22282

